src/images/advantages/card-icon.svg

<svg fill="none" height="29" viewBox="0 0 28 29" width="28" xmlns="http://www.w3.org/2000/svg"><path d="m2.95162 23.425 1.56333.6533v-10.535l-2.835 6.8367c-.47833 1.19.09334 2.555 1.27167 3.045zm22.74998-4.3167-5.7866-13.96496c-.3617-.875-1.2134-1.41166-2.1117-1.435-.3033 0-.6183.04667-.9217.175l-8.59831 3.55834c-.875.36166-1.41167 1.20166-1.435 2.1-.01167.315.04666.63002.175.93332l5.78671 13.965c.3616.8867 1.225 1.4233 2.135 1.435.3033 0 .6066-.0583.8983-.175l8.5867-3.5583c1.19-.49 1.7616-1.855 1.2716-3.0334zm-16.50831-8.4c-.64167 0-1.16667-.525-1.16667-1.16662 0-.64167.525-1.16667 1.16667-1.16667.64166 0 1.16671.525 1.16671 1.16667 0 .64162-.52505 1.16662-1.16671 1.16662zm-2.33334 12.8334c0 1.2833 1.05 2.3333 2.33334 2.3333h1.69171l-4.02505-9.73z" fill="#080807"/></svg>

<svg width="28" height="29" viewBox="0 0 28 29" fill="none" xmlns="http://www.w3.org/2000/svg">
<g id="style-svgrepo-com 1">
<path id="Vector" d="M2.95162 23.425L4.51495 24.0783V13.5433L1.67995 20.38C1.20162 21.57 1.77329 22.935 2.95162 23.425ZM25.7016 19.1083L19.915 5.14334C19.5533 4.26834 18.7016 3.73168 17.8033 3.70834C17.5 3.70834 17.185 3.75501 16.8816 3.88334L8.28329 7.44168C7.40829 7.80334 6.87162 8.64334 6.84829 9.54168C6.83662 9.85668 6.89495 10.1717 7.02329 10.475L12.81 24.44C13.1716 25.3267 14.035 25.8633 14.945 25.875C15.2483 25.875 15.5516 25.8167 15.8433 25.7L24.43 22.1417C25.62 21.6517 26.1916 20.2867 25.7016 19.1083ZM9.19329 10.7083C8.55162 10.7083 8.02662 10.1833 8.02662 9.54168C8.02662 8.90001 8.55162 8.37501 9.19329 8.37501C9.83495 8.37501 10.36 8.90001 10.36 9.54168C10.36 10.1833 9.83495 10.7083 9.19329 10.7083ZM6.85995 23.5417C6.85995 24.825 7.90995 25.875 9.19329 25.875H10.885L6.85995 16.145V23.5417Z" fill="#080807"/>
</g>
</svg>
